X: 4
T: Saint Anne's
R: reel
M: 4/4
L: 1/8
K: Dmaj
|:Ad|f2fg fedB|A2FA DAFA|B2GB EBGB|AGFE DFAd|f2fg fedB|A2FA DAFA|BGBd cAce|fddc d2:||:Ad|f2fg fedf|aggf g2gf|edcB Acea|baab a2Ad|f2fg fedf|aggf g2gf|edcB Aceg|fdec d2:|


Tune 103	Setting 24127

